assets/cards-tab/Asset/settings.svg

<svg width="10" height="9" viewBox="0 0 10 9" fill="none" xmlns="http://www.w3.org/2000/svg">
<path fill-rule="evenodd" clip-rule="evenodd" d="M3.4 2.0275C3.46554 1.69041 3.76078 1.44705 4.10418 1.44705H4.59541C4.93881 1.44705 5.23405 1.69041 5.29959 2.0275C5.31155 2.08898 5.31531 2.14986 5.3117 2.20912C5.30383 2.33865 5.35482 2.47613 5.46687 2.54159C5.58838 2.61257 5.74729 2.57912 5.86021 2.49515C5.91612 2.45358 5.97921 2.41963 6.04868 2.39546C6.36276 2.28618 6.70605 2.41705 6.8696 2.70843L7.14433 3.19786C7.30788 3.48924 7.24643 3.86047 6.99738 4.08559C6.9557 4.12327 6.91114 4.1549 6.86465 4.18063C6.73504 4.25236 6.62697 4.38358 6.63125 4.53166C6.63194 4.55552 6.63228 4.57946 6.63228 4.60349C6.63228 4.61134 6.63225 4.61919 6.63217 4.62703C6.63082 4.7704 6.73465 4.89583 6.85984 4.96571C6.90555 4.99122 6.94938 5.02245 6.99041 5.05954C7.23947 5.28467 7.30092 5.6559 7.13737 5.94727L6.86264 6.43671C6.69909 6.72808 6.3558 6.85896 6.04172 6.74967C5.99209 6.7324 5.94572 6.71015 5.9029 6.68369C5.77786 6.60643 5.61186 6.57894 5.48566 6.65429C5.36425 6.72679 5.30823 6.87735 5.31266 7.0187C5.31431 7.07135 5.31015 7.12518 5.29959 7.17948C5.23405 7.51656 4.93881 7.75992 4.59541 7.75992H4.10418C3.76078 7.75992 3.46554 7.51656 3.4 7.17948C3.38994 7.12775 3.38569 7.07645 3.38673 7.02619C3.38967 6.88513 3.33348 6.73616 3.21168 6.66495C3.20046 6.65839 3.1893 6.65173 3.17819 6.64498C3.05865 6.57231 2.90261 6.59322 2.78039 6.6613C2.74533 6.68083 2.70809 6.69762 2.66881 6.71129C2.35474 6.82057 2.01145 6.6897 1.8479 6.39832L1.57317 5.90888C1.40962 5.61751 1.47107 5.24628 1.72012 5.02115C1.75622 4.98852 1.79449 4.96043 1.83429 4.93677C1.95186 4.8669 2.04741 4.74705 2.04703 4.61028L2.04702 4.60349C2.04702 4.59102 2.04712 4.57857 2.0473 4.56614C2.04947 4.42137 1.94437 4.29427 1.81784 4.22389C1.77182 4.19829 1.72771 4.16691 1.68642 4.12958C1.43737 3.90446 1.37592 3.53323 1.53947 3.24185L1.8142 2.75242C1.97775 2.46104 2.32104 2.33017 2.63511 2.43945C2.6883 2.45796 2.73774 2.48218 2.78308 2.51118C2.90849 2.59137 3.07636 2.62179 3.20459 2.54619L3.21168 2.54203C3.33348 2.47082 3.38967 2.32185 3.38673 2.18079C3.38569 2.13052 3.38994 2.07923 3.4 2.0275ZM4.34986 5.75131C4.96616 5.75131 5.46577 5.23743 5.46577 4.60352C5.46577 3.96961 4.96616 3.45572 4.34986 3.45572C3.73356 3.45572 3.23395 3.96961 3.23395 4.60352C3.23395 5.23743 3.73356 5.75131 4.34986 5.75131Z" fill="url(#paint0_linear_507_2320)" fill-opacity="0.8"/>
<defs>
<linearGradient id="paint0_linear_507_2320" x1="4.25601" y1="10.8455" x2="4.35824" y2="2.03907" gradientUnits="userSpaceOnUse">
<stop stop-color="#999999" stop-opacity="0.1"/>
<stop offset="1" stop-color="white" stop-opacity="0.6"/>
</linearGradient>
</defs>
</svg>

<svg xmlns="http://www.w3.org/2000/svg" width="10" height="9" fill="none" viewBox="0 0 10 9"><path fill="url(#a)" fill-opacity=".8" fill-rule="evenodd" d="M3.4 2.027a.72.72 0 0 1 .704-.58h.491a.717.717 0 0 1 .717.762c-.008.13.043.267.155.333.121.07.28.037.393-.047a.68.68 0 0 1 1.01.213l.274.49a.724.724 0 0 1-.28.983c-.129.071-.237.203-.233.35l.001.096c-.001.143.103.269.228.339q.07.037.13.094c.25.225.31.596.147.887l-.274.49a.68.68 0 0 1-.96.247c-.125-.078-.291-.105-.417-.03-.122.073-.178.223-.173.365a.717.717 0 0 1-.717.741h-.492a.717.717 0 0 1-.717-.734c.003-.14-.054-.29-.175-.361l-.034-.02c-.12-.073-.275-.052-.398.016a.68.68 0 0 1-.932-.263l-.275-.49a.724.724 0 0 1 .261-.971c.118-.07.213-.19.213-.327v-.044c.002-.145-.103-.272-.23-.342a.724.724 0 0 1-.278-.982l.275-.49a.68.68 0 0 1 .97-.24c.124.08.292.11.42.034l.008-.004c.121-.071.178-.22.175-.361a.7.7 0 0 1 .013-.154m.95 3.724c.616 0 1.116-.514 1.116-1.147 0-.634-.5-1.148-1.116-1.148s-1.116.514-1.116 1.148.5 1.147 1.116 1.147" clip-rule="evenodd"/><defs><linearGradient id="a" x1="4.256" x2="4.358" y1="10.845" y2="2.039" gradientUnits="userSpaceOnUse"><stop stop-color="#999" stop-opacity=".1"/><stop offset="1" stop-color="#fff" stop-opacity=".6"/></linearGradient></defs></svg>
